X: 69
T: Evidence
T: Just you, just me
M: 4/4
L: 1/8
C: Thelonious Monk
%%staves (chords melody)
K: Eb
Q: 1/4=184
%%text (medium)
%%vskip 20
P: A
V: chords
"Ebmaj7"x4 x4 | "Gm7"x4 "C7"x4 | "Fm7"x4 x4 | "Bb7"x4 x4 |
"A7"x4 x4 | "Abm7"x4 "Db7"x4 | "Fm7"x4 x4 | "Bb7"x4 x4 ||
V: melody
zDz2 z4 | F2z2 z_Gz2 | z3Ez4 | z2C2 =E2z2 |
z_Dz2 z4 | _G3EF2z2 | z2E2z2zF | B_c3z4 ||
P: A
V: chords
"Ebmaj7"x4 x4 | "Gm7"x4 "C7"x4 | "Fm7"x4 x4 | "Bb7"x4 x4 |
"A7"x4 x4 | "Abm7"x4 "Db7"x4 | "Fm7"x4 x4 | "Bb7"x4 x4 ||
V: melody
zDz2 z4 | F2z2 z_Gz2 | z3Ez4 | z2C2 =E2z2 |
z_Dz2 z4 | _G3EF2z2 | z2E2z2zF | B_c3z4 ||
P: B
V: chords
"Bbm7"x4 x4 | "Eb7"x4 x4 | "Abmaj7"x4 x4 | "Db7"x4 x4 |
"Cm"x4 x4 | "G7"x4 x4 | "F7"x4 x4 | "Bb7"x4 x4 ||
V: melody
zAz2 z4 | z=Az2 z4 | zBz2 z4 | z=Bz2 z4 |
zcz2 z4 | z^cz2 z4 | zdz2 z4 | z=ez2 z4 ||
P: A
V: chords
"Ebmaj7"x4 x4 | "Gm7"x4 "C7"x4 | "Fm7"x4 x4 | "Bb7"x4 x4 |
"A7"x4 x4 | "Abm7"x4 "Db7"x4 | "Fm7"x4 x4 | "Bb7"x4 x4 |]
V: melody
zDz2 z4 | F2z2 z_Gz2 | z3Ez4 | z2C2 =E2z2 |
z_Dz2 z4 | _G3EF2z2 | z2E2z2zF | B_c3z4 |]
